img/feature-icon-02.svg

<svg width="60" height="60" viewBox="0 0 60 60" fill="none" xmlns="http://www.w3.org/2000/svg">
<path d="M33 41H27C26.448 41 26 41.448 26 42C26 42.5519 26.448 43 27 43H33C33.5519 43 33.9999 42.5519 33.9999 42C33.9999 41.448 33.5519 41 33 41Z" fill="#EF2A82"/>
<path d="M55.999 1H4.00102C1.79496 1 0 2.79508 0 5.00102V38C0 38.5519 0.448008 38.9999 0.999961 38.9999H58.9999C59.5519 38.9999 59.9999 38.5519 59.9999 38V5.00102C60 2.79508 58.205 1 55.999 1ZM58 37H2.00004V5.00102C2.00004 3.89699 2.89805 3.00004 4.00102 3.00004H55.999C57.102 3.00004 58 3.89699 58 5.00102V37Z" fill="#EF2A82"/>
<path d="M59 36.9999H0.999961C0.448008 36.9999 0 37.448 0 38V42.9989C0 45.2049 1.79496 46.9999 4.00102 46.9999H55.999C58.205 46.9999 60 45.2049 60 42.9989L59.9999 38C59.9999 37.448 59.552 36.9999 59 36.9999ZM58 42.999C58 44.103 57.102 45 55.999 45H4.00102C2.89805 45 2.00004 44.103 2.00004 42.999V39H58.0001L58 42.999Z" fill="#EF2A82"/>
<path d="M54.9999 5.00005H5.00001C4.44806 5.00005 4.00005 5.44806 4.00005 6.00001V38C4.00005 38.552 4.44806 39 5.00001 39H55C55.552 39 56 38.552 56 38V6.00001C56 5.44806 55.552 5.00005 54.9999 5.00005ZM54 37H5.99997V6.99997H54V37Z" fill="#EF2A82"/>
<path d="M42.9999 53.0001H17C15.346 53.0001 14 54.3461 14 56.0001C14 57.6541 15.346 59.0001 17 59.0001H43C44.654 59.0001 46 57.6541 46 56.0001C46 54.3461 44.6539 53.0001 42.9999 53.0001ZM42.9999 57H17C16.4481 57 16 56.5511 16 56.0001C16 55.4491 16.4481 55.0001 17 55.0001H43C43.552 55.0001 44 55.4491 44 56.0001C44 56.5511 43.552 57 42.9999 57Z" fill="#EF2A82"/>
<path d="M41 53.0001C37.6819 53.0001 35.9999 50.6451 35.9999 46.0001C35.9999 45.4482 35.5519 45.0001 35 45.0001H25C24.4481 45.0001 24 45.4482 24 46.0001C24 50.6451 22.3181 53.0001 19 53.0001C18.4481 53.0001 18 53.4481 18 54C18 54.552 18.4481 55 19 55H41C41.5519 55 41.9999 54.552 41.9999 54C41.9999 53.4481 41.5519 53.0001 41 53.0001ZM23.8709 53.0001C25.102 51.6361 25.8269 49.605 25.9729 47.0001H34.0279C34.1729 49.605 34.8979 51.6361 36.1299 53.0001H23.8709Z" fill="#EF2A82"/>
<path d="M47.784 30.464L45.37 28.05L46.713 26.707C46.962 26.458 47.062 26.096 46.976 25.755C46.8899 25.414 46.631 25.144 46.2939 25.042L36.294 22.042C35.941 21.936 35.56 22.033 35.3 22.2931C35.039 22.5531 34.943 22.935 35.049 23.287L38.049 33.287C38.15 33.625 38.4209 33.884 38.7619 33.97C39.1019 34.054 39.4649 33.9559 39.714 33.707L41.128 32.292L43.5419 34.707C43.7289 34.8949 43.9839 34.9999 44.2489 34.9999C44.5138 34.9999 44.7688 34.8949 44.9559 34.707L47.7838 31.8779C48.1749 31.487 48.1749 30.855 47.784 30.464ZM44.2489 32.586L42.0509 30.387C41.7959 30.132 41.4619 30.0049 41.128 30.0049C40.7929 30.0049 40.4589 30.1329 40.205 30.3859L39.483 31.1079L37.498 24.4909L44.1149 26.4759L43.3409 27.25C43.1279 27.464 43.0109 27.748 43.0109 28.05C43.0109 28.3531 43.1289 28.639 43.3429 28.851L45.6629 31.1709L44.2489 32.586Z" fill="#EF2A82"/>
<path d="M41.9999 8.99997H14C13.448 8.99997 13 9.44798 13 9.99993V15C13 15.5519 13.448 15.9999 14 15.9999H41.9999C42.5519 15.9999 42.9999 15.5519 42.9999 15V9.99993C42.9999 9.44798 42.5519 8.99997 41.9999 8.99997ZM41 14H14.9999V11H41V14Z" fill="#EF2A82"/>
<path d="M26.0001 20.0001H18.0001C17.4481 20.0001 17.0001 20.4481 17.0001 21V25C17.0001 25.5519 17.4481 25.9999 18.0001 25.9999H26.0001C26.5521 25.9999 27.0001 25.5519 27.0001 25V21C27.0001 20.4481 26.5521 20.0001 26.0001 20.0001ZM25.0001 24H19.0001V22H25.0001V24Z" fill="#EF2A82"/>
<path d="M41.9999 8.99997H14C13.448 8.99997 13 9.44798 13 9.99993V28.9999C13 29.5518 13.448 29.9999 14 29.9999H37.806C38.123 29.9999 38.42 29.8509 38.608 29.5968C38.7971 29.3429 38.8551 29.0149 38.764 28.7118L37.498 24.4909L41.713 25.7559C42.0161 25.847 42.3441 25.789 42.597 25.5999C42.8509 25.412 43 25.114 43 24.7979L42.9999 9.99993C42.9999 9.44798 42.5519 8.99997 41.9999 8.99997ZM41 23.454L36.2929 22.042C35.9399 21.9359 35.5589 22.033 35.2989 22.293C35.0379 22.554 34.942 22.935 35.0479 23.2881L36.4619 28H14.9999V11H41V23.454Z" fill="#EF2A82"/>
</svg>

<svg width="60" height="60" fill="none" xmlns="http://www.w3.org/2000/svg"><path d="M33 41h-6a1 1 0 000 2h6a1 1 0 000-2zM55.999 1H4.001A4.006 4.006 0 000 5.001V38a1 1 0 001 1h58a1 1 0 001-1V5.001A4.006 4.006 0 0055.999 1zM58 37H2V5.001C2 3.897 2.898 3 4.001 3h51.998C57.102 3 58 3.897 58 5.001V37z" fill="#EF2A82"/><path d="M59 37H1a1 1 0 00-1 1v4.999a4.006 4.006 0 004.001 4h51.998A4.006 4.006 0 0060 43v-5a1 1 0 00-1-1zm-1 5.999A2.003 2.003 0 0155.999 45H4.001A2.003 2.003 0 012 42.999V39h56v3.999z" fill="#EF2A82"/><path d="M55 5H5a1 1 0 00-1 1v32a1 1 0 001 1h50a1 1 0 001-1V6a1 1 0 00-1-1zm-1 32H6V7h48v30zM43 53H17c-1.654 0-3 1.346-3 3s1.346 3 3 3h26c1.654 0 3-1.346 3-3s-1.346-3-3-3zm0 4H17a1.001 1.001 0 010-2h26a1.001 1.001 0 010 2z" fill="#EF2A82"/><path d="M41 53c-3.318 0-5-2.355-5-7a1 1 0 00-1-1H25a1 1 0 00-1 1c0 4.645-1.682 7-5 7a1 1 0 000 2h22a1 1 0 000-2zm-17.13 0c1.232-1.364 1.957-3.395 2.103-6h8.055c.145 2.605.87 4.636 2.102 6H23.87zm23.914-22.536L45.37 28.05l1.343-1.343a1.001 1.001 0 00-.42-1.665l-9.999-3a.998.998 0 00-1.245 1.245l3 10a.999.999 0 001.665.42l1.414-1.415 2.414 2.415a.998.998 0 001.414 0l2.828-2.83a.999.999 0 000-1.413zm-3.535 2.122l-2.198-2.199a1.304 1.304 0 00-1.846-.001l-.722.722-1.985-6.617 6.617 1.985-.774.774c-.213.214-.33.498-.33.8 0 .303.118.589.332.801l2.32 2.32-1.414 1.415zM42 9H14a1 1 0 00-1 1v5a1 1 0 001 1h28a1 1 0 001-1v-5a1 1 0 00-1-1zm-1 5H15v-3h26v3zm-15 6h-8a1 1 0 00-1 1v4a1 1 0 001 1h8a1 1 0 001-1v-4a1 1 0 00-1-1zm-1 4h-6v-2h6v2z" fill="#EF2A82"/><path d="M42 9H14a1 1 0 00-1 1v19a1 1 0 001 1h23.806a1 1 0 00.958-1.288l-1.266-4.221 4.215 1.265A.997.997 0 0043 24.798V10a1 1 0 00-1-1zm-1 14.454l-4.707-1.412a.998.998 0 00-1.245 1.246L36.462 28H15V11h26v12.454z" fill="#EF2A82"/></svg>
